X: 1
T: NEW LINE -- REEL
B: Ryan's Mammoth Collection of Fiddle Tunes
R: reel
M: C|
L: 1/8
Z: Contributed 20010907015121 by John Chambers jmchambers:rcn.net
K: D
 vDFED dfed | cAGF (Ec)c2 | DFED dfef | cAGE AFGE |
| DFED dfed | cAGF (Ec)c2 | DFED dfef | cAGE (AD)D2 :|
|: fefg fagf | eAce g2(ag) | fede fage | fdec Adde |
|  fede fagf | ecAc e2(gA) | fgef decd | cAGE ADD2 "D.C."|]
